public/assets/imgs/brickWall-icon.svg

<svg fill="none" height="168" viewBox="0 0 205 168" width="205" xmlns="http://www.w3.org/2000/svg"><path clip-rule="evenodd" d="m7 7h57v24h-57zm-6.99999991 0c0-3.86599 3.13400991-7 6.99999991-7h57 3 4 3 26.5c2 0 3.5 1.567 3.5 3.5s-1.5 3.5-3.5 3.5-26.5 0-26.5 0v24h57v-24s-12.5 0-14.5 0-3.5-1.567-3.5-3.5 1.5-3.5 3.5-3.5h14.5c3.866 0 7 3.13401 7 7v24 1h25c3.866 0 7 3.134 7 7v24 2h28c3.866 0 7 3.134 7 7v24c0 3.866-3.134 7-7 7h-26v1 24 2h26c3.866 0 7 3.134 7 7v24c0 3.866-3.134 7-7 7h-57-4-3-4-57-2-5-2-57c-3.86599 0-6.99999991-3.134-6.99999991-7v-24-2-5-2s-.00000009-1.5 0-3.5 1.56699991-3.5 3.49999991-3.5 3.5 1.5 3.5 3.5v3.5h26v-24h-26v7.5c0 2-1.567 3.5-3.5 3.5s-3.49999991-1.5-3.49999991-3.5 0-7.5 0-7.5v-1-6-1-24-2-5-2-24-1-6-1zm96.99999991 56h-57v-24h57zm-90-24h26v24h-26zm156 0h-57v24h57zm-22 33h57v24h-57zm24 32h-57v24h57zm-122 0h57v24h-57zm88-32h-58v24h58zm-124 0h58.5v24h-58.5zm66 65h57v24h-57zm125 0h-57v24h57zm-191 0h57v24h-57z" fill="#000" fill-rule="evenodd"/></svg>

<svg width="205" height="168" viewBox="0 0 205 168" fill="none" xmlns="http://www.w3.org/2000/svg">
<path fill-rule="evenodd" clip-rule="evenodd" d="M7 7H64V31H7V7ZM9.01152e-08 7C9.01152e-08 3.13401 3.13401 0 7 0V0H64H67H71H74C74 0 98.5 0 100.5 0C102.5 0 104 1.567 104 3.5C104 5.433 102.5 7 100.5 7C98.5 7 74 7 74 7V31H131V7C131 7 118.5 7 116.5 7C114.5 7 113 5.433 113 3.5C113 1.567 114.5 0 116.5 0C118.5 0 131 0 131 0V0C134.866 0 138 3.13401 138 7V7V31V32H163V32C166.866 32 170 35.134 170 39V39V63V65H198V65C201.866 65 205 68.134 205 72V72V96V96C205 99.866 201.866 103 198 103V103H172V104V128V130H198V130C201.866 130 205 133.134 205 137V137V161V161C205 164.866 201.866 168 198 168V168H141H137H134H130H73H71H66H64H7V168C3.13401 168 9.01152e-08 164.866 9.01152e-08 161V161V137V135V130V128C9.01152e-08 128 0 126.5 9.01152e-08 124.5C1.8023e-07 122.5 1.567 121 3.5 121C5.433 121 7 122.5 7 124.5C7 126.5 7 128 7 128H33V104H7C7 104 7 109.5 7 111.5C7 113.5 5.433 115 3.5 115C1.567 115 9.01152e-08 113.5 9.01152e-08 111.5C9.01152e-08 109.5 9.01152e-08 104 9.01152e-08 104V103V97V96V72V70V65V63V39V38V32V31V7V7ZM97 63H40V39H97V63ZM7 39H33V63H7V39ZM163 39H106V63H163V39ZM141 72H198V96H141V72ZM165 104H108V128H165V104ZM43 104H100V128H43V104ZM131 72H73V96H131V72ZM7 72H65.5V96H7V72ZM73 137H130V161H73V137ZM198 137H141V161H198V137ZM7 137H64V161H7V137Z" fill="black"/>
</svg>
